!!!!SEGMENT: pl-kk--kk-i-136--004_anonim--ecce-quo-modo-moritur.krn
!!!cenid: 16xx:750
!!!COM: Anonim
!!!COM-rismID: pe30004985
!!!CDT:
!!!CNT:
!!!OTL: Ecce quo modo moritur
!!!PDT:
!!!AGN: Sacred
!!!YEC: Copyright 2022 Narodowy Instytut Fryderyka Chopina (https://polishscores.org)
!!!YEM: License CC-BY-4.0 (https://creativecommons.org/licenses/by/4.0)
!!!SMS-siglum: PL-Kk
!!!SMS-shelfmark: Kk.I.136
!!!SMS-shelfwork: 004 W
!!!SMS-variant: Bassus: pl-kk--i-136--0008
!!!SMS-altvar: Bassus: pl-kk--i-136--0002
!!!NIFC-rismSourceID: 1001143561
!!!NIFC-rismChildID: 1001143723
!!!NIFC-islandoraID: pl-kk:3571
!!!URL-pdf-islandora: https://repozytorium.nifc.pl/islandora/object/pl-kk%3A3571/datastream/PDF/view
!!!URL-scan: https://polish.musicsources.pl/pl/lokalizacje/galeria/rekopisy/5766 @EN{Scan on Polish Music Sources Website} @PL{Skany w portalu Dziedzictwo Muzyki Polskiej w otwartym dostępie}
!!!IIIF:
!!!ONB-nifc: UWAGA: utwory w zbiorze: 1. Caligaverunt oculi a fletu meo, 2. Vinea mea electa, 3. Sepulto Domine, 4. Ecce quo modo moritur
!!!AIN: 2 empty 1 tenor
!!!key:
**kern	**text	**kern	**text	**kern	**kern
*part3	*	*part2	*	*part1	*part1
*staff4	*	*staff3	*	*staff2	*staff1
*Iempty	*	*Itenor	*	*Iempty	*Ivox
*I"Baſus	*	*I"Tenor	*	*I"	*I"Cantus Primus.
*I'B	*	*I'T	*	*I'	*I'S 1
*clefF4	*	*clefC4	*	*clefG2	*clefG2
*k[b-]	*	*k[b-]	*	*k[b-]	*k[b-]
*F:	*	*F:	*	*F:	*F:
*M2/1	*	*M2/1	*	*M2/1	*M2/1
*met(C.)	*	*met(C|)	*	*	*
=1-	=1-	=1-	=1-	=1-	=1-
*2\right	*	*2\right	*	*	*
!	!	!	!	!LO:TX:a:t=P:problem=w źródle brak zachowanej tej partii, ale pojawia się informacja, że utwór przeznaczony jest na 4 głosy	!
0F	Ec-	0c	Ec-	1ryy	1ryy
.	.	.	.	1ryy	1ryy
=2-	=2-	=2-	=2-	=2-	=2-
1C	-ce	1.c	-ce	1ryy	1ryy
2r	.	.	.	1ryy	1ryy
2.F\	quo-	2.c\	quo-	.	.
=3-	=3-	=3-	=3-	=3-	=3-
.	.	.	.	1ryy	1ryy
4F\	-mo-	4c\	-mo-	.	.
2F\	-do	2c\	-do	.	.
1.B-	Mo-	1.d	Mo-	1ryy	1ryy
=4-	=4-	=4-	=4-	=4-	=4-
.	.	.	.	1ryy	1ryy
2F\	-ri-	2c\	-ri-	.	.
1F	-tur	2c\	-tur	1ryy	1ryy
.	.	2.d\	iu-	.	.
=5-	=5-	=5-	=5-	=5-	=5-
0G	iuſ-	.	.	1ryy	1ryy
.	.	4c\	.	.	.
.	.	2.c\	.	.	.
.	.	.	.	1ryy	1ryy
!	!	!LO:TX:a:t=P:problem=# above	!	!	!
!	!	!LO:N:acc=#	!	!	!
.	.	4Bn\	.	.	.
.	.	2Bny\	.	.	.
=6-	=6-	=6-	=6-	=6-	=6-
!	!	!LO:TX:t=P:problem=kreska pseudotaktowa	!	!	!
1C	-tus	1c	-ſtus	1ryy	1ryy
=-	=-	=	=	=-	=-
2rBB	.	2rc	.	1ryy	1ryy
2C/	et	2c\	et	.	.
=7-	=7-	=7-	=7-	=7-	=7-
1F	Ne-	1c	Ne-	1ryy	1ryy
2C/	-mo	2c\	-mo	1ryy	1ryy
2.D/	per-	2.A/	per-	.	.
=8-	=8-	=8-	=8-	=8-	=8-
.	.	.	.	1ryy	1ryy
*custos:AA	*	*	*	*	*
4D/	-ci-	4A/	-ci-	.	.
!LO:LB:g=original	!	!	!	!	!
2AA/	-pit	2A/	-pit	.	.
1D	Cor-	1A	Cor-	1ryy	1ryy
=9-	=9-	=9-	=9-	=9-	=9-
1AA	-de	1A	-de	1ryy	1ryy
=-	=-	=-	=-	=-	=-
2rG	.	2r	.	1ryy	1ryy
*	*ij	*	*ij	*	*
2A\	et	2c\	et	.	.
=10-	=10-	=10-	=10-	=10-	=10-
1F	Ne-	1f	Ne-	1ryy	1ryy
2A\	-mo	2e\	-mo	1ryy	1ryy
2.B-\	per-	2.d\	per-	.	.
=11-	=11-	=11-	=11-	=11-	=11-
.	.	.	.	1ryy	1ryy
4B-\	-ci-	4d\	-ci-	.	.
2F\	-pit	2c\	-pit	.	.
1G	Cor-	1B-	Cor-	1ryy	1ryy
=12-	=12-	=12-	=12-	=12-	=12-
!	!	!LO:TX:t=P:problem=kreska pseudotaktowa	!	!	!
1D	-de	1A	-de	1ryy	1ryy
*	*Xij	*	*Xij	*	*
=-	=-	=	=	=-	=-
2r	.	2r	.	1ryy	1ryy
1D\	Vi-	1A\	Vi-	.	.
=13-	=13-	=13-	=13-	=13-	=13-
.	.	.	.	1ryy	1ryy
*	*	*custos:c	*	*	*
!	!	!LO:TX:a:t=P:problem=# above	!	!	!
!	!	!LO:N:acc=#	!	!	!
2G\	-ri	2Bn\	-ri	.	.
!	!	!LO:LB:g=original	!	!	!
1F	iu-	1c	iu-	1ryy	1ryy
=14-	=14-	=14-	=14-	=14-	=14-
2F\	-ſti	2c\	-ſti	1ryy	1ryy
2F\	tol-	2c\	tol-	.	.
1BB-	-lun-	1d	-lun-	1ryy	1ryy
=15-	=15-	=15-	=15-	=15-	=15-
!	!	!LO:TX:t=P:problem=kreska pseudotaktowa	!	!	!
1F	-tur	1c	-tur	1ryy	1ryy
=-	=-	=	=	=-	=-
2rG	.	2rc	.	1ryy	1ryy
1F\	et	1f\	et	.	.
=16-	=16-	=16-	=16-	=16-	=16-
.	.	.	.	1ryy	1ryy
1G\	ne-	1d\	Ne-	.	.
.	.	.	.	1ryy	1ryy
2A\	-mo	2c#\	-mo	.	.
=17-	=17-	=17-	=17-	=17-	=17-
2D/	Con-	2d\	Con-	1ryy	1ryy
1F\	-ſi-	1cny\	-ſi-	.	.
.	.	.	.	1ryy	1ryy
2F\	-de-	2c\	-de-	.	.
=18-	=18-	=18-	=18-	=18-	=18-
!	!	!LO:TX:t=P:problem=kreska pseudotaktowa	!	!	!
1C	-rat	1c	-rat	1ryy	1ryy
=-	=-	=	=	=-	=-
2rD	.	2r	.	1ryy	1ryy
2C/	a	2c\	à	.	.
=19-	=19-	=19-	=19-	=19-	=19-
2.F\	fa-	2.c\	fa-	1ryy	1ryy
4F\	-ci-	4c\	-ci-	.	.
2F\	-e	2c,\	-e	1ryy	1ryy
!	!	!LO:N:acc=#	!	!	!
2G\	i-	2Bn\	i-	.	.
=20-	=20-	=20-	=20-	=20-	=20-
2F\	-ni-	2c\	-ni-	1ryy	1ryy
*custos:A	*	*	*	*	*
2D/	-qui-	1d\	-qui-	.	.
!LO:LB:g=original	!	!	!	!	!
1A	-ta-	.	.	1ryy	1ryy
!	!	!LO:TX:a:t=P:problem=# above	!	!	!
.	.	2c#X\	-ta-	.	.
=21-	=21-	=21-	=21-	=21-	=21-
1D	-tis	1d	-tis	1ryy	1ryy
=-	=-	=	=	=-	=-
2r	.	2rc	.	1ryy	1ryy
1D\	ſub-	1d\	Sub-	.	.
=22-	=22-	=22-	=22-	=22-	=22-
.	.	.	.	1ryy	1ryy
1C/	-la-	1e-X\	-la-	.	.
.	.	.	.	1ryy	1ryy
2D/	-tus	2d\	-tus	.	.
=23-	=23-	=23-	=23-	=23-	=23-
2F\	eſt	2c\	eſt	1ryy	1ryy
!	!	!LO:TX:a:t=P:problem=# above	!	!	!
!	!	!LO:N:acc=#	!	!	!
1G\	iuſ-	1Bn\	iuſ-	.	.
.	.	.	.	1ryy	1ryy
!	!	!LO:TX:t=P:problem=kreska pseudotaktowa	!	!	!
2F\	-tus	2c\	-tus	.	.
=24-	=24-	=24	=24	=24-	=24-
!LO:TX:t=P:problem=kreska pseudotaktowa	!	!	!	!	!
2rG	.	2rc	.	1ryy	1ryy
=	=	=-	=-	=-	=-
2F\	et	2f\	et	.	.
2F\	e-	2a\	e-	1ryy	1ryy
2F\	-rit	2a\	-rit	.	.
=25-	=25-	=25-	=25-	=25-	=25-
*	*	*custos:f	*	*	*
2A\	in	2a\	in	1ryy	1ryy
!	!	!LO:LB:g=original	!	!	!
1B-\	pa-	1f\	pa-	.	.
.	.	.	.	1ryy	1ryy
2F\	-ce	2f\	-ce	.	.
=26-	=26-	=26-	=26-	=26-	=26-
2G\	me-	2d\	me-	1ryy	1ryy
2.E-X\	-mo-	2.e-X\	-mo-	.	.
.	.	.	.	1ryy	1ryy
4E-y\	-ri-	4e-y\	-ri-	.	.
2F\	-a	2c\	-a	.	.
=27-	=27-	=27-	=27-	=27-	=27-
1C	e-	1c	e-	1ryy	1ryy
!	!	!LO:TX:t=P:problem=kreska pseudotaktowa	!	!	!
1F	-ius	1c	-ius	1ryy	1ryy
=28-	=28-	=28	=28	=28-	=28-
2rD	.	2rc	.	1ryy	1ryy
*	*ij	*	*	*	*
2F\	et	2f\	et	.	.
2F\	e-	2a\	e-	1ryy	1ryy
2F\	-rit	2a\	-rit	.	.
=29-	=29-	=29-	=29-	=29-	=29-
2A\	in	2a\	in	1ryy	1ryy
1B-\	pa-	1f\	pa-	.	.
.	.	.	.	1ryy	1ryy
2F\	-ce	2f,\	-ce	.	.
=30-	=30-	=30-	=30-	=30-	=30-
2G\	me-	2d\	me-	1ryy	1ryy
2.E-X\	-mo-	2.e-X\	-mo-	.	.
.	.	.	.	1ryy	1ryy
4E-y\	-ri-	4e-y\	-ri-	.	.
2F\	-a	2c\	-a	.	.
=31-	=31-	=31-	=31-	=31-	=31-
1C	e-	1c	e-	1ryy	1ryy
!LO:N:vis=0	!	!LO:N:vis=0	!	!	!
1FF;>	-ius	1c;<	-ius	1ryy	1ryy
*	*Xij	*	*	*	*
!LO:LB:g=original	!	!LO:LB:g=original	!	!	!
=32-	=32-	=32-	=32-	=32-	=32-
*M2/1	*	*M2/1	*	*	*
*met(C.)	*	*met(C|)	*	*	*
2rD	.	2rc	.	1ryy	1ryy
2F\	In	1f\	In	.	.
1C	Pa-	.	.	1ryy	1ryy
!	!	!LO:TX:t=P:problem=kreska pseudotaktowa	!	!	!
.	.	2eny\	Pa-	.	.
=33-	=33-	=33	=33	=33-	=33-
2F\	-ce	2f\	-ce	1ryy	1ryy
1F\	fac-	1c\	fac-	.	.
.	.	.	.	1ryy	1ryy
2F\	-tus	2c\	-tus	.	.
=34-	=34-	=34-	=34-	=34-	=34-
2D/	eſt	2d\	eſt	1ryy	1ryy
1D/	lo-	1f\	lo-	.	.
.	.	.	.	1ryy	1ryy
!LO:TX:b:t=P:problem=# below	!	!	!	!	!
2C#X/	-cus	2e\	-cus	.	.
=35-	=35-	=35-	=35-	=35-	=35-
1D	e-	1d	e-	1ryy	1ryy
!	!	!LO:TX:t=P:problem=kreska pseudotaktowa	!	!	!
1AA	-ius	1c#X	-ius	1ryy	1ryy
=36-	=36-	=36	=36	=36-	=36-
2rD	.	2rc	.	1ryy	1ryy
1A\	et	1e\	et	.	.
.	.	.	.	1ryy	1ryy
2c\	in	2e\	in	.	.
=37-	=37-	=37-	=37-	=37-	=37-
1B-	Sẏ-	1f	Sẏ-	1ryy	1ryy
2F\	-on	2f\	-on	1ryy	1ryy
2c\	ha-	2g\	ha-	.	.
=38-	=38-	=38-	=38-	=38-	=38-
2c\	-bi-	2g\	-bi-	1ryy	1ryy
2.c\	-ta-	2.g\	-ta-	.	.
.	.	.	.	1ryy	1ryy
4c\	-ti-	4g\	-ti-	.	.
2d\	-o	2f\	-o	.	.
=39-	=39-	=39-	=39-	=39-	=39-
0c	e-	0g	e-	1ryy	1ryy
.	.	.	.	1ryy	1ryy
=40-	=40-	=40-	=40-	=40-	=40-
!	!	!LO:TX:t=P:problem=kreska pseudotaktowa	!	!	!
1F	-ius	1a	-ius	1ryy	1ryy
=-	=-	=	=	=-	=-
2rG	.	2rc	.	1ryy	1ryy
1A\	et	1e\	et	.	.
=41-	=41-	=41-	=41-	=41-	=41-
.	.	.	.	1ryy	1ryy
2c\	in	2e\	in	.	.
1B-	Sẏ-	1f	Sẏ-	1ryy	1ryy
=42-	=42-	=42-	=42-	=42-	=42-
2F\	-on	2f\	-on	1ryy	1ryy
*custos:c	*	*	*	*	*
2c\	ha-	2g\	ha-	.	.
!LO:LB:g=original	!	!	!	!	!
2c\	-bi-	2g\	-bi-	1ryy	1ryy
2.c\	-ta-	2.g\	-ta-	.	.
=43-	=43-	=43-	=43-	=43-	=43-
.	.	.	.	1ryy	1ryy
4c\	-ti-	4g\	-ti-	.	.
2d\	-o	2f\	-o	.	.
0c	e-	0g	e-	1ryy	1ryy
=44-	=44-	=44-	=44-	=44-	=44-
.	.	.	.	1ryy	1ryy
1F	-ius	1a	-ius	1ryy	1ryy
!	!	!LO:LB:g=original	!	!	!
=45-	=45-	=45-	=45-	=45-	=45-
2r	.	2rc	.	1ryy	1ryy
2F\	et	2f\	et	.	.
2F\	e-	2a\	e-	1ryy	1ryy
2F\	-rit	2a\	-rit	.	.
=46-	=46-	=46-	=46-	=46-	=46-
2A\	in	2a\	in	1ryy	1ryy
1B-\	pa-	1f\	pa-	.	.
.	.	.	.	1ryy	1ryy
2F\	-ce	2f,\	-ce	.	.
=47-	=47-	=47-	=47-	=47-	=47-
2G\	me-	2d\	me-	1ryy	1ryy
2.E-X\	-mo-	2.e-X\	-mo-	.	.
.	.	.	.	1ryy	1ryy
4E-y\	-ri-	4e-y\	-ri-	.	.
2F\	-a	2c\	-a	.	.
=48-	=48-	=48-	=48-	=48-	=48-
1Cny	e-	1c	e-	1ryy	1ryy
!	!	!LO:TX:t=P:problem=kreska pseudotaktowa	!	!	!
1F	-ius	1c	-ius	1ryy	1ryy
=49-	=49-	=49	=49	=49-	=49-
2r	.	2rc	.	1ryy	1ryy
*	*ij	*	*	*	*
2F\	et	2f\	et	.	.
2F\	e-	2a\	e-	1ryy	1ryy
2F\	-rit	2a\	-rit	.	.
=50-	=50-	=50-	=50-	=50-	=50-
2A\	in	2a\	in	1ryy	1ryy
1B-\	pa-	1f\	pa-	.	.
.	.	.	.	1ryy	1ryy
2F\	-ce	2f,\	-ce	.	.
=51-	=51-	=51-	=51-	=51-	=51-
2G\	me-	2d\	me-	1ryy	1ryy
2.E-X\	-mo-	2.e-X\	-mo-	.	.
.	.	.	.	1ryy	1ryy
4E-y\	-ri-	4e-y\	-ri-	.	.
2F\	-a	2c\	-a	.	.
=52-	=52-	=52-	=52-	=52-	=52-
1C	e-	1c	e-	1ryy	1ryy
!LO:N:vis=0	!	!LO:N:vis=0	!	!	!
1F;;< 1FF;>	-ius	1c;<	-ius	1ryy	1ryy
*	*Xij	*	*	*	*
=-	=-	=-	=-	=-	=-
*-	*-	*-	*-	*-	*-
!!!system-decoration: [(s1,s2,s3,s4)]
!!!RDF**kern: > = above
!!!RDF**kern: < = below
!!!EED: Antoni Szymański
!!!EEV: 2021-02-28
!!!ENC: Mateusz Solarz
!!!END: 2021-02-19
